src/app/components/images/coin.svg

<svg width="50" height="43" viewBox="0 0 50 43" fill="none" xmlns="http://www.w3.org/2000/svg">
<mask id="mask0_13_215" style="mask-type:alpha" maskUnits="userSpaceOnUse" x="13" y="6" width="29" height="31">
<ellipse cx="14.0342" cy="14.9276" rx="14.0342" ry="14.9276" transform="matrix(0.993805 0.11114 -0.150205 0.988655 15.424 5.09511)" fill="#D9D9D9"/>
</mask>
<g mask="url(#mask0_13_215)">
<rect width="74.2038" height="53.8372" transform="matrix(0.993805 0.11114 -0.150205 0.988655 -2.89461 -3.10474)" fill="#F8FD00"/>
<path d="M11.4561 7.60394L47.4636 48.5381L5.94245 43.8947L11.4561 7.60394Z" fill="#EADC5E"/>
</g>
<path d="M36.9791 22.6377C36.0862 28.5151 30.8863 32.6276 25.5165 32.027C20.1467 31.4265 16.3494 26.3079 17.2423 20.4305C18.1353 14.553 23.3351 10.4406 28.7049 11.0411C34.0747 11.6416 37.8721 16.7603 36.9791 22.6377Z" stroke="#EFD168" stroke-width="3"/>
<g filter="url(#filter0_f_13_215)">
<path d="M38.6438 11.6031C40.8898 13.8979 42.2852 16.7178 42.6536 19.7059C43.0219 22.6941 42.3466 25.7165 40.713 28.3907C39.0795 31.065 36.5611 33.2712 33.4762 34.7302C30.3914 36.1892 26.8788 36.8355 23.3824 36.5875L23.6253 34.312C26.5967 34.5229 29.5819 33.9736 32.2036 32.7336C34.8252 31.4937 36.9655 29.6188 38.3538 27.346C39.7421 25.0732 40.316 22.5047 40.003 19.9652C39.69 17.4256 38.5041 15.0292 36.5953 13.0789L38.6438 11.6031Z" fill="#A68308"/>
</g>
<defs>
<filter id="filter0_f_13_215" x="19.3824" y="7.60307" width="27.3691" height="33.0362" filterUnits="userSpaceOnUse" color-interpolation-filters="sRGB">
<feFlood flood-opacity="0" result="BackgroundImageFix"/>
<feBlend mode="normal" in="SourceGraphic" in2="BackgroundImageFix" result="shape"/>
<feGaussianBlur stdDeviation="2" result="effect1_foregroundBlur_13_215"/>
</filter>
</defs>
</svg>

<svg width="50" height="43" fill="none" xmlns="http://www.w3.org/2000/svg"><mask id="a" style="mask-type:alpha" maskUnits="userSpaceOnUse" x="13" y="6" width="29" height="31"><ellipse cx="14.034" cy="14.928" rx="14.034" ry="14.928" transform="matrix(.9938 .11114 -.1502 .98865 15.424 5.095)" fill="#D9D9D9"/></mask><g mask="url(#a)"><path fill="#F8FD00" d="M-2.895-3.105 70.85 5.142 62.763 58.37-10.98 50.12z"/><path d="m11.456 7.604 36.008 40.934-41.522-4.643 5.514-36.291z" fill="#EADC5E"/></g><path d="M36.98 22.638c-.894 5.877-6.094 9.99-11.463 9.389-5.37-.6-9.168-5.72-8.275-11.597.893-5.877 6.093-9.99 11.463-9.389 5.37.6 9.167 5.72 8.274 11.597z" stroke="#EFD168" stroke-width="3"/><g filter="url(#b)"><path d="M38.644 11.603c2.246 2.295 3.641 5.115 4.01 8.103.368 2.988-.307 6.01-1.941 8.685-1.633 2.674-4.152 4.88-7.237 6.34-3.085 1.458-6.597 2.105-10.094 1.856l.243-2.275c2.972.21 5.957-.338 8.579-1.578 2.621-1.24 4.761-3.115 6.15-5.388 1.388-2.273 1.962-4.841 1.649-7.38-.313-2.54-1.499-4.937-3.408-6.887l2.049-1.476z" fill="#A68308"/></g><defs><filter id="b" x="19.382" y="7.603" width="27.369" height="33.036" filterUnits="userSpaceOnUse" color-interpolation-filters="sRGB"><feFlood flood-opacity="0" result="BackgroundImageFix"/><feBlend in="SourceGraphic" in2="BackgroundImageFix" result="shape"/><feGaussianBlur stdDeviation="2" result="effect1_foregroundBlur_13_215"/></filter></defs></svg>
